assets/svgs/helmet-grey/HelmetGrey31.svg

<svg xmlns="http://www.w3.org/2000/svg" data-name="Layer 1" viewBox="0 0 128 128"><path d="M64 20.952a36.792 36.792 0 00-36.681 36.681v36.681h73.362V57.633A36.792 36.792 0 0064 20.952zm0 65.2a25.007 25.007 0 1125.007-25.01A25.007 25.007 0 0164 86.148z"/><path d="M53.361 50.5a15.056 15.056 0 003.923 24.11l12.1-27.522A15.049 15.049 0 0053.361 50.5zM71.613 48.16l-12.03 27.367q.691.211 1.4.355l11.84-26.934q-.593-.425-1.21-.788zM66.1 76.041a15.048 15.048 0 0010.3-23.428zM104.056 97.9H23.944a5.025 5.025 0 00-5.006 5.006v4.139h90.125v-4.139a5.025 5.025 0 00-5.007-5.006z"/><path d="M48.221 45.363a22.315 22.315 0 1031.558 0 22.315 22.315 0 00-31.558 0zM64 78.88a17.738 17.738 0 1117.738-17.738A17.739 17.739 0 0164 78.88zM107.5 58.978h-3.23v21.031h3.23a2.655 2.655 0 002.649-2.648V61.627a2.662 2.662 0 00-.776-1.872 2.619 2.619 0 00-1.873-.777zM23.73 80.009V58.978H20.5a2.6 2.6 0 00-1.87.779 2.641 2.641 0 00-.779 1.87v15.734a2.655 2.655 0 002.649 2.648z"/></svg>

<svg id="Layer_1" data-name="Layer 1" xmlns="http://www.w3.org/2000/svg" viewBox="0 0 128 128"><title>Artboard 15</title><path d="M64,20.952A36.792,36.792,0,0,0,27.319,57.633V94.314h73.362V57.633A36.792,36.792,0,0,0,64,20.952Zm0,65.2A25.007,25.007,0,1,1,89.007,61.142,25.007,25.007,0,0,1,64,86.148Z"/><path d="M53.361,50.5A15.056,15.056,0,0,0,57.284,74.61l12.1-27.522A15.049,15.049,0,0,0,53.361,50.5Z"/><path d="M71.613,48.16,59.583,75.527q.691.211,1.4.355l11.84-26.934Q72.23,48.523,71.613,48.16Z"/><path d="M66.1,76.041A15.048,15.048,0,0,0,76.4,52.613Z"/><path d="M104.056,97.9H23.944a5.025,5.025,0,0,0-5.006,5.006v4.139h90.125v-4.139A5.025,5.025,0,0,0,104.056,97.9Z"/><path d="M48.221,45.363a22.315,22.315,0,1,0,31.558,0A22.315,22.315,0,0,0,48.221,45.363ZM64,78.88A17.738,17.738,0,1,1,81.738,61.142,17.739,17.739,0,0,1,64,78.88Z"/><path d="M107.5,58.978H104.27V80.009H107.5a2.655,2.655,0,0,0,2.649-2.648V61.627a2.662,2.662,0,0,0-.776-1.872A2.619,2.619,0,0,0,107.5,58.978Z"/><path d="M23.73,80.009V58.978H20.5a2.6,2.6,0,0,0-1.87.779,2.641,2.641,0,0,0-.779,1.87V77.361A2.655,2.655,0,0,0,20.5,80.009Z"/></svg>
